resources/haticons/SVG/featured_video.svg

<!-- Generated by IcoMoon.io -->
<svg version="1.1" xmlns="http://www.w3.org/2000/svg" width="24" height="24" viewBox="0 0 24 24">
<title>featured_video</title>
<path d="M12 12v-6.984h-9v6.984h9zM21 3q0.797 0 1.406 0.609t0.609 1.406v13.969q0 0.797-0.609 1.406t-1.406 0.609h-18q-0.797 0-1.406-0.609t-0.609-1.406v-13.969q0-0.797 0.609-1.406t1.406-0.609h18z"></path>
</svg>

<svg xmlns="http://www.w3.org/2000/svg" width="24" height="24"><path d="M12 12V5.016H3V12h9zm9-9q.797 0 1.406.609t.609 1.406v13.969q0 .797-.609 1.406T21 20.999H3q-.797 0-1.406-.609t-.609-1.406V5.015q0-.797.609-1.406T3 3h18z"/></svg>
